X:18250
T:Varblomor
C:Trad Mag N# 42
M:3/4
L:1/4
K:C
e3|dcB|A3|E3|1 eBc|dcB|A2c|e3:|2 EB,C|DCB,|A,3-|A,2e||
|:d>ef|fed|c>de|edc|E2B|dcB|1 A>B c/d/|e3:|2 A>B A|A3||
